; generated by PrusaSlicer 2.4.0+win64 on 2022-02-28 at 03:18:20 UTC

; 

; external perimeters extrusion width = 0.60mm
; perimeters extrusion width = 0.50mm
; infill extrusion width = 0.50mm
; solid infill extrusion width = 0.50mm
; top infill extrusion width = 0.45mm
; support material extrusion width = 0.38mm
; first layer extrusion width = 0.42mm

M73 P0 R86
M73 Q0 S87
M201 X1000 Y1000 Z200 E5000 ; sets maximum accelerations, mm/sec^2
M203 X200 Y200 Z12 E120 ; sets maximum feedrates, mm/sec
M204 P1250 R1250 T1250 ; sets acceleration (P, T) and retract acceleration (R), mm/sec^2
M205 X8.00 Y8.00 Z0.40 E4.50 ; sets the jerk limits, mm/sec
M205 S0 T0 ; sets the minimum extruding and travel feed rate, mm/sec
M107
;TYPE:Custom
M862.3 P "MK3S" ; printer model check
M862.1 P0.4 ; nozzle diameter check
M115 U3.10.0 ; tell printer latest fw version
G90 ; use absolute coordinates
M83 ; extruder relative mode
M104 S215 ; set extruder temp
M140 S60 ; set bed temp
M190 S60 ; wait for bed temp
M109 S215 ; wait for extruder temp
G28 W ; home all without mesh bed level
G80 ; mesh bed leveling
G1 Z0.2 F720
G1 Y-3 F1000 ; go outside print area
G92 E0
G1 X60 E9 F1000 ; intro line
G1 X100 E12.5 F1000 ; intro line
G92 E0
M221 S95

; Don't change E values below. Excessive value can damage the printer.

M907 E538 ; set extruder motor current
G21 ; set units to millimeters
G90 ; use absolute coordinates
M83 ; use relative distances for extrusion
M900 K0.05 ; Filament gcode LA 1.5
M900 K30 ; Filament gcode LA 1.0
M107
;LAYER_CHANGE
;Z:0.2
;HEIGHT:0.2
;BEFORE_LAYER_CHANGE
G92 E0.0
;0.2


G1 E-.8 F2100
G1 Z.4 F720
;AFTER_LAYER_CHANGE
;0.2
G1 X97.405 Y78.059 F10800
G1 Z.2 F720
G1 E.8 F2100
M204 S800
;TYPE:Skirt/Brim
;WIDTH:0.42
G1 F1200
G1 X98.593 Y77.225 E.04551
G1 X128.381 Y67.963 E.97808
G1 X129.087 Y67.855 E.02238
G1 X136.982 Y67.855 E.24756
G1 X137.486 Y67.91 E.0159
G1 X151.283 Y70.916 E.44275
G1 X156.547 Y72.6 E.17326
G1 X157.672 Y73.371 E.04278
G1 X158.163 Y74.451 E.03719
G1 X165.11 Y113.816 E1.25335
G1 X165.146 Y124.44 E.33311
G1 X164.755 Y125.747 E.04278
G1 X164.104 Y126.408 E.02908
G1 X160.98 Y128.515 E.11814
G1 X147.403 Y136.094 E.48754
G1 X146.429 Y136.388 E.03191
G1 X116.641 Y138.704 E.93678
G1 X108.562 Y138.711 E.25333
G1 X107.363 Y138.387 E.03894
G1 X95.469 Y131.44 E.43187
G1 X94.337 Y129.853 E.06111
G1 X89.706 Y106.697 E.74042
G1 X89.66 Y89.073 E.55259
G1 X90.142 Y87.637 E.04751
G1 X97.369 Y78.107 E.375
M204 S1000
; printing object Navi v2.stl id:0 copy 0
;WIPE_START
G1 F8640
G1 X98.593 Y77.225 E-.34839
G1 X100.295 Y76.696 E-.41161
;WIPE_END
G1 E-.04 F2100
G1 Z.6 F720
G1 X99.616 Y82.443 F10800
G1 Z.2 F720
G1 E.8 F2100
M204 S800
;TYPE:Support material interface
;WIDTH:0.38
G1 F1200
G1 X99.616 Y84.758 E.0649
G1 X99.56 Y84.758 E.00157
G1 X99.56 Y85.121 E.01018
G1 X100.075 Y84.686 E.01891
G1 X100.075 Y82.443 E.06288
G1 X100.591 Y82.443 E.01445
G1 X100.591 Y84.495 E.05753
G1 X101.106 Y84.987 E.01997
G1 X101.106 Y82.443 E.07131
G1 X101.622 Y82.443 E.01445
G1 X101.622 Y87.074 E.12981
G1 X101.106 Y87.074 E.01445
G1 X101.106 Y84.997 E.05821
G1 X100.591 Y85.757 E.02572
G1 X100.591 Y87.074 E.03693
G1 X100.075 Y87.074 E.01445
G1 X100.075 Y86.516 E.01565
G1 X99.696 Y87.074 E.01891
G1 X99.917 Y87.074 E.0062
M204 S1000
G1 X99.56 Y87.275 F10800
M204 S800
G1 F1200
G1 X99.56 Y91.705 E.12417
G1 X99.044 Y91.705 E.01445
G1 X99.044 Y88.034 E.10289
G1 X98.528 Y88.794 E.02572
G1 X98.528 Y91.705 E.08161
G1 X98.013 Y91.705 E.01445
G1 X98.013 Y89.553 E.06033
G1 X97.497 Y90.312 E.02572
G1 X97.497 Y91.705 E.03905
G1 X96.981 Y91.705 E.01445
G1 X96.981 Y90.472 E.03456
G1 X96.466 Y90.198 E.01636
G1 X96.466 Y91.705 E.04224
G1 X95.95 Y91.705 E.01445
G1 X95.95 Y89.39 E.0649
G1 X96.466 Y89.39 E.01445
G1 X96.466 Y90.181 E.02218
G1 X96.786 Y89.39 E.02393
G1 X96.624 Y89.39 E.00455
M204 S1000
G1 X95.792 Y89.39 F10800
M204 S800
G1 F1200
G1 X95.435 Y89.39 E.01003
G1 X95.435 Y91.705 E.0649
G1 X94.984 Y91.705 E.01262
G1 X94.984 Y89.39 E.0649
G1 X95.277 Y89.39 E.0082
M204 S1000
;WIPE_START
G1 F8640
G1 X94.984 Y89.39 E-.06754
G1 X94.984 Y91.705 E-.53469
G1 X95.435 Y91.705 E-.10398
G1 X95.435 Y91.472 E-.05379
;WIPE_END
G1 E-.04 F2100
G1 Z.6 F720
G1 X97.832 Y89.165 F10800
G1 Z.2 F720
G1 E.8 F2100
M204 S800
;TYPE:Support material
;WIDTH:0.42
G1 F1200
G1 X97.162 Y90.151 E.03739
G1 X96.924 Y90.025 E.00843
G1 X97.4 Y88.913 E.03793
G1 X97.783 Y89.136 E.0139
M204 S1000
;WIPE_START
G1 F8640
G1 X97.4 Y88.913 E-.10238
G1 X96.924 Y90.025 E-.2793
G1 X97.162 Y90.151 E-.06209
G1 X97.832 Y89.165 E-.27538
;WIPE_END
G1 E-.08085 F2100
G1 Z.6 F720
G1 X97.423 Y87.884 F10800
G1 Z.2 F720
G1 E.8 F2100
M204 S800
;TYPE:Support material interface
;WIDTH:0.38
G1 F1200
G1 X97.3 Y88.115 E.00733
G1 X97.3 Y87.366 E.02099
M204 S1000
;WIPE_START
G1 F8640
G1 X97.3 Y88.115 E-.17288
G1 X97.423 Y87.884 E-.06035
;WIPE_END
G1 E-.56676 F2100
G1 Z.6 F720
G1 X97.3 Y85.137 F10800
G1 Z.2 F720
G1 E.8 F2100
M204 S800
G1 F1200
G1 X97.3 Y84.758 E.01062
G1 X97.497 Y84.758 E.00553
G1 X97.497 Y87.745 E.0837
G1 X98.013 Y86.88 E.02822
G1 X98.013 Y84.758 E.05946
G1 X98.528 Y84.758 E.01445
G1 X98.528 Y86.152 E.03907
G1 X99.044 Y85.537 E.02249
G1 X99.044 Y84.758 E.02184
G1 X99.402 Y84.758 E.01003
M204 S1000
;WIPE_START
G1 F8640
G1 X99.044 Y84.758 E-.08262
G1 X99.044 Y85.537 E-.1799
G1 X98.528 Y86.152 E-.18526
G1 X98.528 Y84.8 E-.31223
;WIPE_END
G1 E-.04 F2100
G1 Z.6 F720
G1 X100.631 Y85.042 F10800
G1 Z.2 F720
G1 E.8 F2100
M204 S800
;TYPE:Support material
;WIDTH:0.42
G1 F1200
G1 X100.226 Y85.639 E.02263
G1 X99.859 Y85.346 E.01473
G1 X100.447 Y84.867 E.02379
G1 X100.59 Y85.003 E.00619
M204 S1000
;WIPE_START
G1 F8640
G1 X100.447 Y84.867 E-.04559
G1 X99.859 Y85.346 E-.17518
G1 X100.226 Y85.639 E-.10849
G1 X100.631 Y85.042 E-.16666
;WIPE_END
G1 E-.30408 F2100
G1 Z.6 F720
G1 X101.78 Y87.074 F10800
G1 Z.2 F720
G1 E.8 F2100
M204 S800
;TYPE:Support material interface
;WIDTH:0.38
G1 F1200
G1 X101.931 Y87.074 E.00424
G1 X101.931 Y82.443 E.12981
G1 X101.78 Y82.443 E.00424
M204 S1000
;WIPE_START
G1 F8640
G1 X101.931 Y82.443 E-.03495
G1 X101.931 Y85.583 E-.72505
;WIPE_END
G1 E-.04 F2100
G1 Z.6 F720
G1 X134.464 Y75.496 F10800
G1 Z.2 F720
G1 E.8 F2100
M204 S800
G1 F1200
G1 X134.35 Y75.496 E.0032
G1 X134.35 Y73.18 E.0649
G1 X134.622 Y73.18 E.00762
G1 X134.622 Y75.496 E.0649
G1 X135.137 Y75.496 E.01445
G1 X135.137 Y73.18 E.0649
G1 X135.653 Y73.18 E.01445
G1 X135.653 Y75.496 E.0649
G1 X136.169 Y75.496 E.01445
G1 X136.169 Y73.18 E.0649
G1 X136.684 Y73.18 E.01445
G1 X136.684 Y75.496 E.0649
G1 X137.2 Y75.496 E.01445
G1 X137.2 Y74.857 E.01791
G1 X137.03 Y74.848 E.00476
G1 X136.997 Y73.901 E.02656
G1 X137.2 Y73.875 E.00572
G1 X137.2 Y73.18 E.01949
G1 X137.715 Y73.18 E.01445
G1 X137.715 Y73.812 E.0177
G1 X138.231 Y73.756 E.01454
G1 X138.231 Y73.18 E.01614
G1 X138.747 Y73.18 E.01445
G1 X138.747 Y73.707 E.01476
G1 X139.262 Y73.664 E.0145
G1 X139.262 Y73.18 E.01357
G1 X139.778 Y73.18 E.01445
G1 X139.778 Y73.629 E.01259
G1 X140.167 Y73.609 E.01093
G1 X140.169 Y73.484 E.00349
G1 X140.293 Y73.48 E.0035
G1 X140.293 Y73.18 E.00841
G1 X140.809 Y73.18 E.01445
G1 X140.809 Y73.464 E.00795
G1 X141.325 Y73.449 E.01446
G1 X141.325 Y73.18 E.00753
G1 X141.84 Y73.18 E.01445
G1 X141.84 Y73.44 E.00728
G1 X142.356 Y73.438 E.01445
G1 X142.356 Y73.18 E.00723
G1 X142.872 Y73.18 E.01445
G1 X142.872 Y73.442 E.00735
G1 X143.387 Y73.454 E.01446
G1 X143.387 Y73.18 E.00767
G1 X143.903 Y73.18 E.01445
G1 X143.903 Y73.473 E.00822
G1 X144.418 Y73.502 E.01447
G1 X144.418 Y73.18 E.00901
G1 X144.934 Y73.18 E.01445
G1 X144.934 Y73.541 E.0101
G1 X145.45 Y73.592 E.01452
G1 X145.45 Y73.18 E.01154
G1 X145.965 Y73.18 E.01445
G1 X145.965 Y73.659 E.01341
G1 X146.481 Y73.743 E.01465
G1 X146.481 Y73.18 E.01579
G1 X146.997 Y73.18 E.01445
G1 X146.997 Y73.848 E.01871
G1 X147.238 Y73.897 E.00691
G1 X147.221 Y74.029 E.00375
G1 X147.512 Y74.108 E.00844
G1 X147.512 Y73.18 E.02599
G1 X148.028 Y73.18 E.01445
G1 X148.028 Y74.27 E.03053
G1 X148.543 Y74.466 E.01546
G1 X148.543 Y73.18 E.03603
G1 X148.901 Y73.18 E.01003
M204 S1000
;WIPE_START
G1 F8640
G1 X148.543 Y73.18 E-.08262
G1 X148.543 Y74.466 E-.29684
G1 X148.028 Y74.27 E-.12738
G1 X148.028 Y73.18 E-.25155
G1 X148.021 Y73.18 E-.00162
;WIPE_END
G1 E-.04 F2100
G1 Z.6 F720
G1 X145.808 Y75.321 F10800
G1 Z.2 F720
G1 E.8 F2100
M204 S800
G1 F1200
G1 X145.45 Y75.302 E.01005
G1 X145.45 Y75.496 E.00543
G1 X144.934 Y75.496 E.01445
G1 X144.934 Y75.274 E.00621
G1 X144.418 Y75.246 E.01447
G1 X144.418 Y75.496 E.00699
G1 X143.903 Y75.496 E.01445
G1 X143.903 Y75.219 E.00777
G1 X143.387 Y75.191 E.01447
G1 X143.387 Y75.496 E.00855
G1 X142.872 Y75.496 E.01445
G1 X142.872 Y75.163 E.00933
G1 X142.356 Y75.135 E.01447
G1 X142.356 Y75.496 E.01011
G1 X141.84 Y75.496 E.01445
G1 X141.84 Y75.107 E.01089
G1 X141.325 Y75.079 E.01447
G1 X141.325 Y75.496 E.01167
G1 X140.809 Y75.496 E.01445
G1 X140.809 Y75.052 E.01245
G1 X140.293 Y75.024 E.01447
G1 X140.293 Y75.496 E.01323
G1 X139.778 Y75.496 E.01445
G1 X139.778 Y74.996 E.01401
G1 X139.262 Y74.968 E.01447
G1 X139.262 Y75.496 E.01479
G1 X138.747 Y75.496 E.01445
G1 X138.747 Y74.94 E.01557
G1 X138.231 Y74.912 E.01447
G1 X138.231 Y75.496 E.01635
G1 X137.715 Y75.496 E.01445
G1 X137.715 Y74.885 E.01713
G1 X137.357 Y74.865 E.01005
M204 S1000
;WIPE_START
G1 F8640
G1 X137.715 Y74.885 E-.08279
G1 X137.715 Y75.496 E-.14113
G1 X138.231 Y75.496 E-.11906
G1 X138.231 Y74.912 E-.13471
G1 X138.747 Y74.94 E-.11923
G1 X138.747 Y75.496 E-.12828
G1 X138.897 Y75.496 E-.03479
;WIPE_END
G1 E-.04 F2100
G1 Z.6 F720
G1 X136.982 Y72.812 F10800
G1 Z.2 F720
G1 E.8 F2100
M204 S800
;TYPE:Support material
;WIDTH:0.42
G1 F1200
G1 X133.982 Y72.812 E.09406
G1 X133.982 Y75.864 E.09568
G1 X145.56 Y75.864 E.36302
G1 X145.56 Y78.179 E.0726
M73 Q0 S86
G1 X150.927 Y78.179 E.16828
G1 X150.927 Y74.864 E.10396
G1 X155.823 Y74.864 E.15349
G1 X155.823 Y83.075 E.25745
G1 X153.507 Y83.075 E.0726
G1 X153.507 Y87.706 E.14521
G1 X151.191 Y87.706 E.0726
G1 X151.191 Y90.022 E.0726
G1 X148.876 Y90.022 E.0726
G1 X148.876 Y92.337 E.0726
G1 X146.56 Y92.337 E.0726
G1 X146.56 Y94.653 E.0726
G1 X141.929 Y94.653 E.14521
G1 X141.929 Y96.969 E.0726
G1 X139.613 Y96.969 E.0726
G1 X139.613 Y99.284 E.0726
G1 X134.982 Y99.284 E.14521
G1 X134.982 Y101.6 E.0726
G1 X130.351 Y101.6 E.14521
G1 X130.351 Y103.915 E.0726
G1 X128.035 Y103.915 E.0726
G1 X128.035 Y104.967 E.03297
G1 X132.666 Y104.967 E.14521
G1 X132.666 Y107.282 E.0726
G1 X146.56 Y107.282 E.43563
G1 X146.56 Y109.598 E.0726
G1 X155.823 Y109.598 E.29042
G1 X155.823 Y111.914 E.0726
G1 X160.454 Y111.914 E.14521
G1 X160.454 Y114.229 E.0726
G1 X162.769 Y114.229 E.0726
G1 X162.769 Y124.44 E.32016
G1 X160.19 Y124.44 E.08089
G1 X160.19 Y121.44 E.09406
G1 X154.823 Y121.44 E.16828
G1 X154.823 Y123.756 E.0726
G1 X150.191 Y123.756 E.14521
G1 X150.191 Y126.072 E.0726
G1 X145.56 Y126.072 E.14521
G1 X145.56 Y128.387 E.0726
G1 X143.244 Y128.387 E.0726
G1 X143.244 Y131.439 E.09568
G1 X146.244 Y131.439 E.09406
G1 X146.244 Y134.018 E.08089
G1 X133.718 Y134.018 E.39276
G1 X133.718 Y131.703 E.0726
G1 X129.087 Y131.703 E.14521
G1 X129.087 Y129.387 E.0726
G1 X124.455 Y129.387 E.14521
G1 X124.455 Y127.072 E.0726
G1 X122.14 Y127.072 E.0726
G1 X122.14 Y124.756 E.0726
G1 X121.088 Y124.756 E.03297
G1 X121.088 Y129.387 E.14521
G1 X118.773 Y129.387 E.0726
G1 X118.773 Y134.018 E.14521
G1 X116.457 Y134.018 E.0726
G1 X116.457 Y136.334 E.0726
G1 X108.562 Y136.334 E.24756
G1 X108.562 Y133.754 E.08089
G1 X111.562 Y133.754 E.09406
G1 X111.562 Y130.703 E.09568
G1 X109.246 Y130.703 E.0726
G1 X109.246 Y128.387 E.0726
G1 X106.93 Y128.387 E.0726
G1 X106.93 Y126.072 E.0726
G1 X101.563 Y126.072 E.16828
G1 X101.563 Y129.123 E.09568
G1 X103.879 Y129.123 E.0726
G1 X103.879 Y129.387 E.00828
G1 X96.668 Y129.387 E.2261
G1 X96.668 Y111.914 E.54787
G1 X98.983 Y111.914 E.0726
G1 X98.983 Y109.598 E.0726
G1 X103.615 Y109.598 E.14521
G1 X103.615 Y108.547 E.03297
G1 X94.352 Y108.547 E.29042
G1 X94.352 Y106.231 E.0726
G1 X92.037 Y106.231 E.0726
G1 X92.037 Y89.073 E.53797
G1 X94.616 Y89.073 E.08089
G1 X94.616 Y92.073 E.09406
G1 X99.983 Y92.073 E.16828
G1 X99.983 Y87.442 E.14521
G1 X102.299 Y87.442 E.0726
G1 X102.299 Y82.075 E.16828
M73 P0 R85
G1 X99.299 Y82.075 E.09406
G1 X99.299 Y79.495 E.08089
G1 X109.51 Y79.495 E.32016
G1 X109.51 Y81.811 E.0726
G1 X111.826 Y81.811 E.0726
G1 X111.826 Y84.126 E.0726
G1 X114.141 Y84.126 E.0726
G1 X114.141 Y88.757 E.14521
G1 X115.193 Y88.757 E.03297
M73 P1 R85
M73 Q1 S86
G1 X115.193 Y84.126 E.14521
G1 X117.508 Y84.126 E.0726
G1 X117.508 Y79.495 E.14521
G1 X119.824 Y79.495 E.0726
G1 X119.824 Y77.179 E.0726
G1 X122.14 Y77.179 E.0726
G1 X122.14 Y74.864 E.0726
G1 X124.455 Y74.864 E.0726
G1 X124.455 Y72.548 E.0726
G1 X129.087 Y72.548 E.14521
G1 X129.087 Y70.233 E.0726
G1 X136.982 Y70.233 E.24756
G1 X136.982 Y72.756 E.07911
M204 S1000
;WIPE_START
G1 F8640
G1 X136.982 Y70.233 E-.58262
G1 X136.214 Y70.233 E-.17738
;WIPE_END
G1 E-.04 F2100
G1 Z.6 F720
G1 X162.178 Y124.271 F10800
G1 Z.2 F720
G1 E.8 F2100
M204 S800
G1 F1200
G1 X162.178 Y114.569 E.3042
G1 X161.759 Y114.569 E.01314
G1 X161.759 Y124.101 E.29888
G1 X161.34 Y124.101 E.01314
G1 X161.34 Y114.569 E.29888
G1 X160.921 Y114.569 E.01314
G1 X160.921 Y124.101 E.29888
G1 X160.529 Y124.101 E.0123
G1 X160.529 Y121.101 E.09406
G1 X160.502 Y121.101 E.00084
G1 X160.502 Y114.569 E.20482
G1 X160.114 Y114.569 E.01216
G1 X160.114 Y112.253 E.0726
G1 X160.083 Y112.253 E.00098
G1 X160.083 Y121.101 E.27742
G1 X159.664 Y121.101 E.01314
G1 X159.664 Y112.253 E.27742
G1 X159.245 Y112.253 E.01314
G1 X159.245 Y121.101 E.27742
G1 X158.826 Y121.101 E.01314
G1 X158.826 Y112.253 E.27742
G1 X158.407 Y112.253 E.01314
G1 X158.407 Y121.101 E.27742
G1 X157.988 Y121.101 E.01314
G1 X157.988 Y112.253 E.27742
G1 X157.569 Y112.253 E.01314
G1 X157.569 Y121.101 E.27742
G1 X157.15 Y121.101 E.01314
G1 X157.15 Y112.253 E.27742
G1 X156.731 Y112.253 E.01314
G1 X156.731 Y121.101 E.27742
G1 X156.312 Y121.101 E.01314
G1 X156.312 Y112.253 E.27742
G1 X155.893 Y112.253 E.01314
G1 X155.893 Y121.101 E.27742
G1 X155.474 Y121.101 E.01314
G1 X155.474 Y109.937 E.35002
G1 X155.055 Y109.937 E.01314
G1 X155.055 Y121.101 E.35002
G1 X154.637 Y121.101 E.01314
G1 X154.637 Y109.937 E.35002
G1 X154.218 Y109.937 E.01314
G1 X154.218 Y123.417 E.42263
G1 X153.799 Y123.417 E.01314
G1 X153.799 Y109.937 E.42263
G1 X153.38 Y109.937 E.01314
G1 X153.38 Y123.417 E.42263
G1 X152.961 Y123.417 E.01314
G1 X152.961 Y109.937 E.42263
G1 X152.542 Y109.937 E.01314
G1 X152.542 Y123.417 E.42263
G1 X152.123 Y123.417 E.01314
G1 X152.123 Y109.937 E.42263
G1 X151.704 Y109.937 E.01314
G1 X151.704 Y123.417 E.42263
G1 X151.285 Y123.417 E.01314
G1 X151.285 Y109.937 E.42263
G1 X150.866 Y109.937 E.01314
G1 X150.866 Y123.417 E.42263
G1 X150.447 Y123.417 E.01314
G1 X150.447 Y109.937 E.42263
G1 X150.028 Y109.937 E.01314
G1 X150.028 Y123.417 E.42263
G1 X149.852 Y123.417 E.00551
G1 X149.852 Y125.732 E.0726
G1 X149.609 Y125.732 E.00762
G1 X149.609 Y109.937 E.49523
G1 X149.19 Y109.937 E.01314
G1 X149.19 Y125.732 E.49523
G1 X148.771 Y125.732 E.01314
G1 X148.771 Y109.937 E.49523
G1 X148.352 Y109.937 E.01314
G1 X148.352 Y125.732 E.49523
G1 X147.933 Y125.732 E.01314
G1 X147.933 Y109.937 E.49523
G1 X147.514 Y109.937 E.01314
G1 X147.514 Y125.732 E.49523
G1 X147.095 Y125.732 E.01314
G1 X147.095 Y109.937 E.49523
G1 X146.676 Y109.937 E.01314
G1 X146.676 Y125.732 E.49523
G1 X146.257 Y125.732 E.01314
G1 X146.257 Y109.937 E.49523
G1 X146.221 Y109.937 E.00114
G1 X146.221 Y107.622 E.0726
G1 X145.838 Y107.622 E.012
G1 X145.838 Y125.732 E.56784
G1 X145.419 Y125.732 E.01314
G1 X145.419 Y107.622 E.56784
G1 X145 Y107.622 E.01314
G1 X145 Y128.048 E.64044
G1 X144.581 Y128.048 E.01314
G1 X144.581 Y107.622 E.64044
G1 X144.162 Y107.622 E.01314
G1 X144.162 Y128.048 E.64044
G1 X143.743 Y128.048 E.01314
G1 X143.743 Y107.622 E.64044
G1 X143.324 Y107.622 E.01314
G1 X143.324 Y128.218 E.64576
M204 S1000
;WIPE_START
G1 F8640
G1 X143.324 Y124.926 E-.76
;WIPE_END
G1 E-.04 F2100
G1 Z.6 F720
G1 X155.474 Y82.905 F10800
G1 Z.2 F720
G1 E.8 F2100
M204 S800
G1 F1200
G1 X155.474 Y75.203 E.24149
G1 X155.055 Y75.203 E.01314
